img/social/tg.svg

<svg width="26" height="20" viewBox="0 0 26 20" fill="none" xmlns="http://www.w3.org/2000/svg">
<path d="M10.3098 13.1813L9.89625 18.7653C10.4879 18.7653 10.7442 18.5213 11.0515 18.2283L13.8255 15.6833L19.5736 19.7243C20.6278 20.2883 21.3705 19.9913 21.6549 18.7933L25.4279 1.8214L25.4289 1.8204C25.7633 0.324404 24.8654 -0.260593 23.8382 0.106405L1.66063 8.25736C0.147052 8.82136 0.169969 9.63136 1.40333 9.99835L7.07326 11.6913L20.2434 3.78039C20.8632 3.38639 21.4267 3.60439 20.9632 3.99839L10.3098 13.1813Z" fill="white"/>
</svg>

<svg width="26" height="20" fill="none" xmlns="http://www.w3.org/2000/svg"><path d="m10.31 13.181-.414 5.584c.592 0 .848-.244 1.155-.537l2.774-2.545 5.749 4.041c1.054.564 1.796.267 2.08-.93L25.429 1.82c.335-1.497-.563-2.082-1.59-1.715L1.661 8.257C.147 8.821.17 9.631 1.403 9.998l5.67 1.693 13.17-7.91c.62-.395 1.184-.177.72.217L10.31 13.181Z" fill="#fff"/></svg>
